X:52401
T:Clumsy Lover
C: Neil Dickie
H:
B: 
O:Arranged by Kevin Fraser
Z:Kevin Fraser
Q:1/4=90
M:2/4
L:1/16
K:HP
R:Hornpipe
U: R = ///
U: r = //
U: V = !accent!
V:M gstem=up stem=down name="Melody" sname="Melody"
V:H gstem=up stem=down name="Harmony" sname="Harmony"
V:C gstem=up stem=down name="C-Harmony" sname=C-Harmony"
V:S gstem=up stem=down dyn=up stafflines=1 clef=perc middle=G name="Snare" sname="Snare" sname="Snare"
V:B gstem=up stem=down clef=none dyn=up name="Bass" sname="Bass"
V:T gstem=up stem=down clef=none dyn=up name="Tenor" sname="Tenor"
V:BB gstem=up stem=down name="Brass Bass" sname="ABCD-C" transpose=-1  octave=-1 clef=bass
V:BC gstem=up stem=down name="Brass Chord" sname="ABCD-D" transpose=-1
V:BD gstem=up stem=down name="Brass Chord 2" sname="ABCD-B" transpose=-1
V:P gstem=up stem=down name="Piano" octave=-1
I:MIDI=program 110
%%MIDI gracedivider 4
%%MIDI gchord
%%MIDI beatstring 
% %alignbars 80
%%landscape
% abc2xml.py percussion maps
I:percmap C D 52 triangle
I:percmap A * 60 x
I:percmap c * 47 diamond
I:linebreak $
%
% abcm2ps / abc2svg percussion maps
%
%%map drummap C print=D heads=triangle
%%map drummap A heads=x_head
%%map drummap c heads=diamond
%
% %score {M (BS)}
%%MIDI program 109 #bagpipes
%%MIDI vol 100
T: Clumsy Lover (Canntaireachd)
[V:M]|: d2     |  {g}ce{A}ef  {g}ec{g}B{d}A | {g}df{e}fd  af{g}df    | {g}ce{A}ef   {g}ec{d}B{e}A | {gdedc}d2{g}Bc {g}de{g}c{d}B | $
w: e      |  hio e che ve he o ho den  | ha ve che a I vi ha vi | hio e che ve   he o do den | harado ho  io  ha  e hio  do | $
[V:M]          [2  "2nd ending parts 1-3"{g}ce{A}ef  {g}ec{g}B{d}A | {g}df{e}fd  gf{g}ed    | {g}ce{A}ec   {gdedc}d2{g}GB| {g}B{d}A{e}AB {gAGAG}A2  :| $
w:         | hio e che ve he o ho den  | ha ve che a di vi he a | hio e che io harado hem o  | ho den en o   haradin     | $
[V:M]|: d2     |  {g}ce{A}ea  {g}ae{g}c{d}A | {g}dA{g}df  af{g}df    | {g}ce{A}ea   {g}ae{g}c{d}A | {gdedc}d2{g}Bc {g}de{g}c{d}B | $
w: e      |  hio e che I  li e hio den | ha en ha ve I ve ha ve | hio e che I   li e hio den | harado ho  io  ha  e hio  do |
[V:M]         [1  {g}ce{A}ea  {g}ae{g}c{d}A | {g}dA{g}df  af{g}df    | {g}ce{A}ec   {gdedc}d2{g}GB| {g}B{d}A{e}AB {gAGAG}A2  :| $
w:           hio e che I  li e hio den | ha en ha ve I ve ha ve | hio e che io harado hem o  | ho den en o   haradin     |
[V:M]|: d2     |  {g}ce{A}e{g}c e{A}e{g}ce  | {g}df{e}f{g}d  f{e}f{g}df | {g}ce{A}e{g}c e{A}e{g}ce   |  {g}dB{G}Bc {g}de{g}c{d}B | $
w: e      |  hio e che hio e de hio e  | ha vi chi ha  vi chi ha vi| hio e che hio e de hio e   | ha o do io   ha e hio  do |
[V:M]         [1  {g}ce{A}e{g}c e{A}e{g}ce  | {g}df{e}f{g}d  f{e}f{g}df | {g}ce{A}ec   {gdedc}d2{g}GB| {g}B{d}A{e}AB {gAGAG}A2  :| $
w:           hio e che hio e de hio e  | ha vi chi ha  vi chi ha vi| hio e che io harado hem o  | ho den en o   haradin     |
[V:M]|: d2     |  {g}ca{g}ae     ae{g}cA    | {g}da{g}ad  aA{g}da    | {g}ca{g}ae     ae{g}cA     | {gdedc}d2{g}Bc {g}de{g}c{d}B | $
w: e      |  hio I li e    I e hio en  | ha I li a   I en ha I  | hio I li e    I e hio en   | harado ho  io  ha  e hio  do |
[V:M]          |  {g}ca{g}ae     ae{g}cA    | {g}da{g}ad  aA{g}da    | {g}ce{A}ec   {gdedc}d2{g}GB| {g}B{d}A{e}AB {gAGAG}A2  :| $
w:        |  hio I li e    I e hio en  | ha I li a   I en ha I  | hio e che io harado hem o  | ho den en o   haradin     | 
[V:M]|: d2     |  {g}ce{A}eA  {eAfA}e2{g}Ae | {g}d3f     {a}g>f{g}ed | {g}ce{A}eA  {eAfA}e2{g}Ae  |  {g}dB{G}Bc {g}de{g}c{d}B | $
w: e      |  hio e che en buble e hen e| ha di      chi vi he a | hio e che en buble e hen e | ha o do io   ha e hio  do |
[V:M]          |  {g}ce{A}eA  {eAfA}e2{g}Ae | {g}d3f     {a}g>f{g}ed | {g}ce{A}ec   {gdedc}d2{g}GB| {g}B{d}A{e}AB {gAGAG}A2  :| $
w:        |  hio e che en buble e hen e| ha di      chi vi he a | hio e che io harado hem o  | ho den en o   haradin     |
[V:M]|: d2     |  {g}ca{g}ac     a{g}aca    | da{g}ad     a{g}ada    |   ca{g}ac     a{g}aca     | Baca            daea      | $
w: e      |  hio I li io    I li io I  | a I li a   I li a I    | io I li io    I li io I   | o I io I        a I e I   |
[V:M]         [1  {g}ca{g}ac     a{g}aca    | da{g}ad     a{g}ada    | {g}ce{A}ec  {gdedc}d2{g}GB| {g}B{d}A{e}AB {gAGAG}A2  :| $
w:           hio I li io    I li io I  | a I li a   I li a I    | hio e che io harado hem o | ho den en o   haradin     |
[V:M]         [2 {g}ca{g}ae     a{g}aca    | da{g}af     a{g}ada    | {g}ce{A}ec   {gdedc}d2{g}GB| {g}B{d}A{e}AB {gAGAG}A2  ||
w:           hio I li e     I li io I  | a I li ve   I li di I  | hio e che io harado hem o  | ho den en o   haradin     |
W: SFU - Down Under - 05 - SFU Restropective Medley
W: 78th Fraser Highlanders - Live in Concert in Ireland - TBC
W: Airdrie Scots Pipes and Drums plays it as it was on an album from the 80s (can't find the track)




